packages/icons/svg/Outline/corner-left-up.svg

<svg width="24" height="24" viewBox="0 0 24 24" fill="none" xmlns="http://www.w3.org/2000/svg">
<g id="Icon/Outline/corner-left-up">
<path id="Mask" fill-rule="evenodd" clip-rule="evenodd" d="M17.9999 17H12.9999C12.4489 17 11.9999 16.551 11.9999 16V7.081L15.3749 9.781C15.5599 9.928 15.7799 10 15.9999 10C16.2919 10 16.5829 9.872 16.7809 9.625C17.1259 9.193 17.0559 8.564 16.6249 8.219L11.6249 4.219C11.2589 3.927 10.7409 3.927 10.3749 4.219L5.37491 8.219C4.94391 8.564 4.87391 9.193 5.21891 9.625C5.56291 10.056 6.19391 10.125 6.62491 9.781L9.99991 7.081V16C9.99991 17.654 11.3459 19 12.9999 19H17.9999C18.5519 19 18.9999 18.552 18.9999 18C18.9999 17.448 18.5519 17 17.9999 17Z" fill="#000000"/>
</g>
</svg>

<svg fill="none" height="24" viewBox="0 0 24 24" width="24" xmlns="http://www.w3.org/2000/svg"><path clip-rule="evenodd" d="m18 17h-5c-.551 0-1-.449-1-1v-8.919l3.375 2.7c.185.147.405.219.625.219.292 0 .583-.128.781-.375.345-.432.275-1.061-.156-1.406l-5-4c-.366-.292-.884-.292-1.25 0l-4.99997 4c-.431.345-.501.974-.156 1.406.344.431.975.5 1.406.156l3.37497-2.7v8.919c0 1.654 1.346 3 3 3h5c.552 0 1-.448 1-1s-.448-1-1-1" fill="#6b7280" fill-rule="evenodd"/></svg>
